svgs/bol.svg

<svg xmlns="http://www.w3.org/2000/svg" viewBox="0 0 192 192"><path d="M102.663 71.771h.071a21.25 21.25 0 0 1 14.994 6.189 21.097 21.097 0 0 1 6.21 14.94v55.392a21.095 21.095 0 0 1-6.21 14.941 21.253 21.253 0 0 1-14.994 6.188h-.071a21.257 21.257 0 0 1-14.994-6.188 21.096 21.096 0 0 1-6.211-14.941V92.9c0-5.601 2.236-10.98 6.211-14.94a21.254 21.254 0 0 1 14.994-6.189" fill="none" stroke="#000" stroke-width="12" stroke-linecap="round" stroke-linejoin="round"/><path d="M170.717 157.184c-1.401 0-2.746.968-3.737 2.689-.99 1.72-1.548 4.056-1.548 6.49 0 2.433.558 4.769 1.548 6.488.991 1.721 2.336 2.688 3.737 2.688 1.4 0 2.745-.967 3.735-2.688.991-1.719 1.548-4.055 1.548-6.488 0-2.434-.557-4.77-1.548-6.49-.99-1.721-2.335-2.689-3.735-2.689Z"/><path d="M141.269 22.089v128.977c0 4.898 1.121 9.603 3.116 13.065 1.994 3.465 4.701 5.414 7.521 5.414h3.452M22 108.726c0-6.443.977-12.774 2.832-18.354 1.855-5.581 4.522-10.216 7.736-13.437 3.212-3.222 6.857-4.92 10.566-4.92 3.71 0 7.356 1.698 10.568 4.92 3.212 3.221 5.881 7.856 7.736 13.437 1.854 5.58 2.831 11.911 2.831 18.354V133.2c0 6.444-.977 12.776-2.831 18.355-1.855 5.581-4.524 10.215-7.736 13.438-3.212 3.221-6.858 4.918-10.568 4.918-3.709 0-7.354-1.697-10.566-4.918-3.214-3.223-5.881-7.857-7.736-13.438C22.977 145.976 22 139.644 22 133.2m0 36.345V22.089" fill="none" stroke="#000" stroke-width="12" stroke-linecap="round" stroke-linejoin="round"/></svg>

<svg
    xmlns="http://www.w3.org/2000/svg"
    viewBox="0 0 192 192"
    id="vector">
    <path
        id="path"
        d="M 102.663 71.771 L 102.734 71.771 C 108.356 71.771 113.753 73.999 117.728 77.96 C 121.703 81.92 123.938 87.299 123.938 92.9 L 123.938 148.292 C 123.938 153.895 121.703 159.273 117.728 163.233 C 113.753 167.193 108.356 169.421 102.734 169.421 L 102.663 169.421 C 97.042 169.421 91.645 167.193 87.669 163.233 C 83.694 159.273 81.458 153.895 81.458 148.292 L 81.458 92.9 C 81.458 87.299 83.694 81.92 87.669 77.96 C 91.645 73.999 97.042 71.771 102.663 71.771"
        fill="none"
        stroke="#000000"
        stroke-width="12"
        stroke-linecap="round"
        stroke-linejoin="round"/>
    <path
        id="path_1"
        d="M 170.717 157.184 C 169.316 157.184 167.971 158.152 166.98 159.873 C 165.99 161.593 165.432 163.929 165.432 166.363 C 165.432 168.796 165.99 171.132 166.98 172.851 C 167.971 174.572 169.316 175.539 170.717 175.539 C 172.117 175.539 173.462 174.572 174.452 172.851 C 175.443 171.132 176 168.796 176 166.363 C 176 163.929 175.443 161.593 174.452 159.873 C 173.462 158.152 172.117 157.184 170.717 157.184 Z"
        fill="#000000"
        stroke-width="12"/>
    <path
        id="path_2"
        d="M 141.269 22.089 L 141.269 151.066 C 141.269 155.964 142.39 160.669 144.385 164.131 C 146.379 167.596 149.086 169.545 151.906 169.545 L 155.358 169.545 M 22 108.726 C 22 102.283 22.977 95.952 24.832 90.372 C 26.687 84.791 29.354 80.156 32.568 76.935 C 35.78 73.713 39.425 72.015 43.134 72.015 C 46.844 72.015 50.49 73.713 53.702 76.935 C 56.914 80.156 59.583 84.791 61.438 90.372 C 63.292 95.952 64.269 102.283 64.269 108.726 L 64.269 133.2 C 64.269 139.644 63.292 145.976 61.438 151.555 C 59.583 157.136 56.914 161.77 53.702 164.993 C 50.49 168.214 46.844 169.911 43.134 169.911 C 39.425 169.911 35.78 168.214 32.568 164.993 C 29.354 161.77 26.687 157.136 24.832 151.555 C 22.977 145.976 22 139.644 22 133.2 M 22 169.545 L 22 22.089"
        fill="none"
        stroke="#000000"
        stroke-width="12"
        stroke-linecap="round"
        stroke-linejoin="round"/>
</svg>
